public/images/hashed/c98daee0c3869899549b4f858320da6f.svg

<?xml version="1.0" encoding="UTF-8"?>
<svg width="80px" height="80px" viewBox="0 0 80 80" version="1.1" xmlns="http://www.w3.org/2000/svg" xmlns:xlink="http://www.w3.org/1999/xlink">
    <!-- Generator: Sketch 64 (93537) - https://sketch.com -->
    <title>Icon-Architecture/64/Arch_Amazon-DocumentDB_64</title>
    <desc>Created with Sketch.</desc>
    <defs>
        <linearGradient x1="0%" y1="100%" x2="100%" y2="0%" id="linearGradient-1">
            <stop stop-color="#2E27AD" offset="0%"></stop>
            <stop stop-color="#527FFF" offset="100%"></stop>
        </linearGradient>
    </defs>
    <g id="Icon-Architecture/64/Arch_Amazon-DocumentDB_64" stroke="none" stroke-width="1" fill="none" fill-rule="evenodd">
        <g id="Icon-Architecture-BG/64/Database" fill="url(#linearGradient-1)">
            <rect id="Rectangle" x="0" y="0" width="80" height="80"></rect>
        </g>
        <path d="M34.5,13.9928328 C44.813,13.9928328 52,17.1435014 52,19.9713312 C52,22.7991609 44.813,25.9498296 34.5,25.9498296 C24.187,25.9498296 17,22.7991609 17,19.9713312 C17,17.1435014 24.187,13.9928328 34.5,13.9928328 L34.5,13.9928328 Z M34.295,67.0071672 C24.103,67.0071672 17,63.7877458 17,60.8991347 L17,52.2123765 C20.121,54.8249803 26.472,56.5388165 34.161,56.5388165 C35.934,56.5388165 37.718,56.4401713 39.465,56.2468665 L39.244,54.2659907 C37.57,54.4513242 35.859,54.5459837 34.161,54.5459837 C24.646,54.5459837 17.83,51.7241325 17,48.9929552 L17,38.2555721 C20.121,40.8681759 26.472,42.5810156 34.161,42.5810156 C35.971,42.5810156 37.757,42.481374 39.469,42.2840836 L39.24,40.3052006 C37.603,40.4935233 35.895,40.5881829 34.161,40.5881829 C24.646,40.5881829 17.83,37.767328 17,35.0361507 L17,23.5544445 C19.879,26.0126038 25.818,27.9426624 34.5,27.9426624 C43.182,27.9426624 49.121,26.0126038 52,23.5544445 L52,26.946246 L54,26.946246 L54,19.9713312 C54,16.1072284 47.166,12 34.5,12 C21.834,12 15,16.1072284 15,19.9713312 L15,60.8991347 C15,65.5165283 23.295,69 34.295,69 C43.13,69 50.592,66.669382 52.863,63.201853 L51.187,62.1127699 C49.595,64.5450223 43.281,67.0071672 34.295,67.0071672 L34.295,67.0071672 Z M58.207,42.1675028 C58.77,42.1675028 59.267,42.3916965 59.606,42.8002273 C60.23,43.5475396 60.129,44.6794686 60.068,45.080028 C60.097,47.1864522 61.26,47.5979722 61.395,47.6388253 C61.825,47.7683594 62.128,48.171908 62.117,48.6202954 C62.106,49.0686828 61.809,49.4572852 61.372,49.5658946 C61.259,49.6007692 60.067,50.0222533 60.067,52.1964339 C60.09,53.369216 59.527,54.6695394 58.237,54.7083996 L57.469,54.7083996 L57.469,52.7155668 L57.997,52.7155668 C58.037,52.5830434 58.068,52.3747924 58.067,52.2103837 C58.067,50.3919238 58.677,49.274941 59.329,48.6003671 C58.677,47.9267896 58.067,46.8127961 58.067,45.0013111 C58.067,44.9405297 58.073,44.8787519 58.084,44.8189669 C58.122,44.6047373 58.122,44.3237479 58.09,44.1603356 L57.469,44.1603356 L57.469,42.1675028 L58.207,42.1675028 Z M53.527,42.1675028 L54.296,42.1675028 L54.296,44.1603356 L53.769,44.1603356 C53.728,44.292859 53.697,44.50111 53.698,44.6655187 C53.698,46.4839787 53.089,47.6009615 52.437,48.2755354 C53.089,48.9491128 53.698,50.0631064 53.698,51.8745914 C53.698,51.9363692 53.692,51.9971506 53.682,52.0569356 C53.644,52.2711651 53.644,52.5521545 53.676,52.7155668 L54.296,52.7155668 L54.296,54.7083996 L53.558,54.7083996 C52.995,54.7083996 52.498,54.4842059 52.158,54.0766716 C51.535,53.3293593 51.637,52.1974303 51.697,51.7958745 C51.669,49.6904466 50.505,49.2779303 50.37,49.2380736 C49.939,49.107543 49.637,48.7039944 49.647,48.255607 C49.658,47.8082161 49.956,47.4186173 50.393,47.3100079 C50.507,47.2751333 51.698,46.8536492 51.698,44.6794686 C51.675,43.5076829 52.237,42.2063631 53.527,42.1675028 L53.527,42.1675028 Z M64,58.8315707 L47,58.8315707 L47,34.9175771 L58,34.9175771 L58,38.9032427 C58,39.4532646 58.447,39.8996591 59,39.8996591 L64,39.8996591 L64,58.8315707 Z M60,34.9175771 L60.245,34.9175771 L63.268,37.9068263 L60,37.9068263 L60,34.9175771 Z M65.704,37.5082598 L61.361,33.2137051 C61.175,33.0283716 60.921,32.9247443 60.657,32.9247443 L60,32.9247443 L59.635,32.9247443 L56.548,29.2918102 C56.357,29.0676165 56.078,28.9390788 55.784,28.9390788 L42,28.9390788 C41.447,28.9390788 41,29.3854733 41,29.9354951 L41,55.8423215 C41,56.3923433 41.447,56.8387379 42,56.8387379 L44,56.8387379 L44,54.8459051 L43,54.8459051 L43,30.9319115 L55.32,30.9319115 L57.014,32.9247443 L46,32.9247443 C45.447,32.9247443 45,33.3711389 45,33.9211607 L45,59.8279871 C45,60.3780089 45.447,60.8244035 46,60.8244035 L65,60.8244035 C65.553,60.8244035 66,60.3780089 66,59.8279871 L66,38.2157154 C66,37.9496722 65.894,37.6955861 65.704,37.5082598 L65.704,37.5082598 Z" id="Amazon-DocumentDB_Icon_64_Squid" fill="#FFFFFF"></path>
    </g>
</svg>

<svg xmlns="http://www.w3.org/2000/svg" width="80" height="80"><defs><linearGradient id="a" x1="0%" x2="100%" y1="100%" y2="0%"><stop offset="0%" stop-color="#2E27AD"/><stop offset="100%" stop-color="#527FFF"/></linearGradient></defs><g fill="none" fill-rule="evenodd"><path fill="url(#a)" d="M0 0h80v80H0z"/><path fill="#FFF" d="M34.5 13.993c10.313 0 17.5 3.15 17.5 5.978s-7.187 5.979-17.5 5.979C24.187 25.95 17 22.8 17 19.97c0-2.827 7.187-5.978 17.5-5.978Zm-.205 53.014C24.103 67.007 17 63.787 17 60.9v-8.687c3.121 2.613 9.472 4.327 17.161 4.327a48.41 48.41 0 0 0 5.304-.292l-.221-1.981c-1.674.185-3.385.28-5.083.28-9.515 0-16.331-2.822-17.161-5.553V38.256c3.121 2.612 9.472 4.325 17.161 4.325 1.81 0 3.596-.1 5.308-.297l-.229-1.979a44.622 44.622 0 0 1-5.079.283c-9.515 0-16.331-2.82-17.161-5.552V23.554c2.879 2.459 8.818 4.389 17.5 4.389s14.621-1.93 17.5-4.389v3.392h2v-6.975C54 16.107 47.166 12 34.5 12S15 16.107 15 19.971V60.9C15 65.517 23.295 69 34.295 69c8.835 0 16.297-2.33 18.568-5.798l-1.676-1.09c-1.592 2.433-7.906 4.895-16.892 4.895Zm23.912-24.84c.563 0 1.06.225 1.399.633.624.748.523 1.88.462 2.28.029 2.106 1.192 2.518 1.327 2.559.43.13.733.533.722.981a.989.989 0 0 1-.745.946c-.113.035-1.305.456-1.305 2.63.023 1.173-.54 2.474-1.83 2.512h-.768v-1.992h.528c.04-.133.071-.341.07-.506 0-1.818.61-2.935 1.262-3.61-.652-.673-1.262-1.787-1.262-3.599 0-.06.006-.122.017-.182.038-.214.038-.495.006-.659h-.621v-1.992h.738Zm-4.68 0h.769v1.993h-.527a1.89 1.89 0 0 0-.071.506c0 1.818-.609 2.935-1.261 3.61.652.673 1.261 1.787 1.261 3.599 0 .061-.006.122-.016.182a2.086 2.086 0 0 0-.006.659h.62v1.992h-.738c-.563 0-1.06-.224-1.4-.631-.623-.748-.521-1.88-.461-2.281-.028-2.106-1.192-2.518-1.327-2.558a1.014 1.014 0 0 1-.723-.982.99.99 0 0 1 .746-.946c.114-.035 1.305-.456 1.305-2.63-.023-1.172.539-2.474 1.829-2.512ZM64 58.833H47V34.918h11v3.985c0 .55.447.997 1 .997h5v18.932Zm-4-23.914h.245l3.023 2.989H60v-2.99Zm5.704 2.59-4.343-4.294a.998.998 0 0 0-.704-.29h-1.022l-3.087-3.632a1.003 1.003 0 0 0-.764-.353H42c-.553 0-1 .446-1 .996v25.907c0 .55.447.997 1 .997h2v-1.993h-1V30.932h12.32l1.694 1.993H46c-.553 0-1 .446-1 .996v25.907c0 .55.447.996 1 .996h19c.553 0 1-.446 1-.996V38.216a.992.992 0 0 0-.296-.708Z"/></g></svg>
